static/assets/images/networks/zksync-era.svg

<svg xmlns="http://www.w3.org/2000/svg" fill="none" viewBox="0 0 512 512"><path fill="#fff" d="M256 512c141.385 0 256-114.615 256-256S397.385 0 256 0 0 114.615 0 256s114.615 256 256 256"/><path fill="#1E225A" fill-rule="evenodd" d="M454 255.524 341.68 142v83.119l-111.511 83.216 111.511.096V369zM58 255.475l112.32 113.477v-82.445l111.511-83.89-111.511-.097V142z" clip-rule="evenodd"/></svg>

<svg width="512" height="512" viewBox="0 0 512 512" fill="none" xmlns="http://www.w3.org/2000/svg">
<path d="M256 512C397.385 512 512 397.385 512 256C512 114.615 397.385 0 256 0C114.615 0 0 114.615 0 256C0 397.385 114.615 512 256 512Z" fill="white"/>
<path fill-rule="evenodd" clip-rule="evenodd" d="M454 255.524L341.68 142V225.119L230.169 308.335L341.68 308.431V369L454 255.524Z" fill="#1E225A"/>
<path fill-rule="evenodd" clip-rule="evenodd" d="M58 255.475L170.32 368.952V286.507L281.831 202.617L170.32 202.52V142L58 255.475Z" fill="#1E225A"/>
</svg>
